X:695
T:Pat Donald
C:Joe Buchanan's Scottish Tome - Page 220.2
I:220 2
Z:Carl Allison
C:Adam Rennie
R:Reel
L:1/8
M:4/4
K:D
F/G/ | A/A/A/A/ fc | ed dF/G/ | A/A/A/A/ fc | ed B>d |
c/c/c/e/ B>d | c/c/c/e/ B2 | g/f/g Bc | d/A/F/A/ fF/G/ |
A/A/A/A/ fc | ed dF/G/ | A/A/A/A/ fc | ed B>d |
c/c/c/e/ B>d | c/c/c/e/ B>d | c/A/^G/A/ fe | d2 A2 |
f/f/f/f/ ed | A/B/A A2 | f/f/f/f/ ed | B2> B2
c/c/c/c/ BA | cc cG | B/B/B/B/ AG | F2> B2
f/f/f/f/ ed | A/B/A A2 | f/f/f/f/ ed | b2> B2
c/c/c/c/ BA | aa ag | f/A/^G/A/ fe | d2 d |]

